; G-Code generated by Simplify3D(R) Version 3.0.0
; Aug 17, 2016 at 8:59:29 PM
; Settings Summary
;   processName,Isolator
;   applyToModels,lid
;   profileName,PLA 195 T20 0.20L 50mm/s (modified)
;   profileVersion,2016-08-16 23:57:56
;   baseProfile,Duplicator_I3_60micron (modified)
;   printMaterial,PLA
;   printQuality,Medium
;   printExtruders,
;   extruderName,Extruder 1
;   extruderToolheadNumber,0
;   extruderDiameter,0.4
;   extruderAutoWidth,0
;   extruderWidth,0.5
;   extrusionMultiplier,0.88
;   extruderUseRetract,1
;   extruderRetractionDistance,1.1
;   extruderExtraRestartDistance,0
;   extruderRetractionZLift,0
;   extruderRetractionSpeed,2100
;   extruderUseCoasting,0
;   extruderCoastingDistance,0.2
;   extruderUseWipe,0
;   extruderWipeDistance,5
;   primaryExtruder,0
;   layerHeight,0.25
;   topSolidLayers,3
;   bottomSolidLayers,2
;   perimeterOutlines,3
;   printPerimetersInsideOut,1
;   startPointOption,2
;   startPointOriginX,0
;   startPointOriginY,0
;   startPointOriginZ,300
;   sequentialIslands,0
;   spiralVaseMode,0
;   firstLayerHeightPercentage,100
;   firstLayerWidthPercentage,100
;   firstLayerUnderspeed,0.45
;   useRaft,0
;   raftExtruder,0
;   raftLayers,1
;   raftOffset,1.2
;   raftSeparationDistance,0.08
;   raftInfill,85
;   disableRaftBaseLayers,1
;   useSkirt,0
;   skirtExtruder,0
;   skirtLayers,2
;   skirtOutlines,3
;   skirtOffset,3
;   usePrimePillar,0
;   primePillarExtruder,999
;   primePillarWidth,4
;   primePillarLocation,7
;   primePillarSpeedMultiplier,1
;   useOozeShield,0
;   oozeShieldExtruder,999
;   oozeShieldOffset,5
;   oozeShieldOutlines,1
;   oozeShieldSidewallShape,0
;   oozeShieldSidewallAngle,30
;   oozeShieldSpeedMultiplier,1
;   infillExtruder,0
;   internalInfillPattern,Triangular
;   externalInfillPattern,Rectilinear
;   infillPercentage,25
;   outlineOverlapPercentage,20
;   infillExtrusionWidthPercentage,105
;   minInfillLength,5
;   infillLayerInterval,1
;   infillAngles,0,60,-60
;   overlapInfillAngles,1
;   generateSupport,1
;   supportExtruder,0
;   supportInfillPercentage,18
;   supportExtraInflation,0
;   denseSupportLayers,2
;   denseSupportInfillPercentage,60
;   supportLayerInterval,1
;   supportHorizontalPartOffset,0.3
;   supportUpperSeparationLayers,1
;   supportLowerSeparationLayers,1
;   supportType,1
;   supportGridSpacing,4
;   maxOverhangAngle,45
;   supportAngles,0
;   temperatureName,Extruder 1 Temperature,Heated Bed
;   temperatureNumber,0,0
;   temperatureSetpointCount,1,1
;   temperatureSetpointLayers,1,1
;   temperatureSetpointTemperatures,195,50
;   temperatureStabilizeAtStartup,1,1
;   temperatureHeatedBed,0,1
;   temperatureRelayBetweenLayers,0,0
;   temperatureRelayBetweenLoops,0,0
;   fanLayers,1,2
;   fanSpeeds,0,100
;   blipFanToFullPower,0
;   adjustSpeedForCooling,0
;   minSpeedLayerTime,5
;   minCoolingSpeedSlowdown,20
;   increaseFanForCooling,0
;   minFanLayerTime,45
;   maxCoolingFanSpeed,100
;   increaseFanForBridging,0
;   bridgingFanSpeed,100
;   use5D,1
;   relativeEdistances,0
;   allowEaxisZeroing,1
;   independentExtruderAxes,0
;   includeM10123,0
;   stickySupport,1
;   applyToolheadOffsets,0
;   gcodeXoffset,2
;   gcodeYoffset,1
;   gcodeZoffset,0
;   overrideMachineDefinition,1
;   machineTypeOverride,0
;   strokeXoverride,199
;   strokeYoverride,200
;   strokeZoverride,183
;   originOffsetXoverride,0
;   originOffsetYoverride,0
;   originOffsetZoverride,0
;   homeXdirOverride,-1
;   homeYdirOverride,-1
;   homeZdirOverride,-1
;   flipXoverride,1
;   flipYoverride,-1
;   flipZoverride,1
;   toolheadOffsets,0,0|0,0|0,0|0,0|0,0|0,0
;   overrideFirmwareConfiguration,1
;   firmwareTypeOverride,RepRap (Marlin/Repetier/Sprinter)
;   GPXconfigOverride,r2
;   baudRateOverride,250000
;   overridePrinterModels,0
;   printerModelsOverride
;   startingGcode,G28 ; home all axes
;   layerChangeGcode,
;   retractionGcode,
;   toolChangeGcode,
;   endingGcode,G91,G1 Z10,G92,G1 X10,M104 S0 ; turn off extruder,M140 S0 ; turn off bed,M84 ; disable motors,M106 S0
;   createX3G,0
;   celebration,0
;   celebrationSong,Random Song
;   createMB5G,0
;   postProcessing,
;   defaultSpeed,3600
;   outlineUnderspeed,0.5
;   solidInfillUnderspeed,0.8
;   supportUnderspeed,0.8
;   rapidXYspeed,6000
;   rapidZspeed,600
;   minBridgingArea,50
;   bridgingExtraInflation,0
;   bridgingExtrusionMultiplier,1
;   bridgingSpeedMultiplier,1
;   filamentDiameter,1.68
;   filamentPricePerKg,30
;   filamentDensity,1.25
;   useMinPrintHeight,0
;   minPrintHeight,0
;   useMaxPrintHeight,0
;   maxPrintHeight,0
;   useDiaphragm,0
;   diaphragmLayerInterval,20
;   robustSlicing,1
;   mergeAllIntoSolid,0
;   onlyRetractWhenCrossingOutline,0
;   retractBetweenLayers,1
;   useRetractionMinTravel,0
;   retractionMinTravel,3
;   retractWhileWiping,0
;   onlyWipeOutlines,1
;   avoidCrossingOutline,0
;   maxMovementDetourFactor,3
;   toolChangeRetractionDistance,12
;   toolChangeExtraRestartDistance,-0.5
;   toolChangeRetractionSpeed,600
;   allowThinWallGapFill,1
;   thinWallAllowedOverlapPercentage,10
;   horizontalSizeCompensation,0
G90
M82
M106 S0
M140 S50
M190 S50
M104 S195 T0
M109 S195 T0
G28 ; home all axes
G92 E0
G1 E-1.1000 F2100
G1 Z0.250 F600
; layer 1, Z = 0.25
T0
; tool H0.250 W0.500
; inner perimeter
; inner perimeter
; outer perimeter
G1 X52.261 Y56.766 F6000
G1 E0.0000 F630
G92 E0
G1 X52.469 Y56.587 E0.0136 F810
G1 X52.703 Y56.443 E0.0272
G1 X52.956 Y56.338 E0.0409
G1 X53.223 Y56.273 E0.0545
G1 X53.506 Y56.250 E0.0686
G1 X149.490 Y56.250 E4.8316
G1 X149.770 Y56.272 E4.8455
G1 X150.037 Y56.336 E4.8592
G1 X150.291 Y56.440 E4.8728
G1 X150.525 Y56.583 E4.8864
G1 X150.734 Y56.761 E4.9000
G1 X150.913 Y56.969 E4.9136
G1 X151.057 Y57.203 E4.9272
G1 X151.162 Y57.456 E4.9409
G1 X151.227 Y57.723 E4.9545
G1 X151.250 Y58.006 E4.9686
G1 X151.250 Y143.990 E9.2354
G1 X151.228 Y144.270 E9.2493
G1 X151.164 Y144.537 E9.2629
G1 X151.060 Y144.791 E9.2765
G1 X150.917 Y145.025 E9.2902
G1 X150.739 Y145.234 E9.3038
G1 X150.531 Y145.413 E9.3174
G1 X150.297 Y145.557 E9.3310
G1 X150.044 Y145.662 E9.3446
G1 X149.777 Y145.727 E9.3583
G1 X149.494 Y145.750 E9.3724
G1 X53.510 Y145.750 E14.1354
G1 X53.230 Y145.728 E14.1493
G1 X52.963 Y145.664 E14.1629
G1 X52.709 Y145.560 E14.1766
G1 X52.475 Y145.417 E14.1902
G1 X52.266 Y145.239 E14.2038
G1 X52.087 Y145.031 E14.2174
G1 X51.943 Y144.797 E14.2310
G1 X51.838 Y144.544 E14.2447
G1 X51.773 Y144.277 E14.2583
G1 X51.750 Y143.994 E14.2724
G1 X51.750 Y58.010 E18.5392
G1 X51.772 Y57.730 E18.5531
G1 X51.836 Y57.463 E18.5667
G1 X51.940 Y57.209 E18.5803
G1 X52.083 Y56.975 E18.5940
G1 X52.261 Y56.766 E18.6076
G92 E0
G1 E-1.1000 F2100
; inner perimeter
; inner perimeter
; outer perimeter
G1 X53.146 Y57.368 F6000
G1 E0.0000 F2100
G92 E0
G1 X53.019 Y57.518 E0.0097 F810
G1 X52.917 Y57.685 E0.0195
G1 X52.842 Y57.867 E0.0292
G1 X52.797 Y58.057 E0.0389
G1 X52.782 Y58.240 E0.0480
G1 X52.783 Y143.763 E4.2919
G1 X52.798 Y143.949 E4.3012
G1 X52.844 Y144.140 E4.3109
G1 X52.920 Y144.321 E4.3207
G1 X53.023 Y144.488 E4.3304
G1 X53.151 Y144.637 E4.3402
G1 X53.300 Y144.764 E4.3499
G1 X53.468 Y144.866 E4.3596
G1 X53.649 Y144.940 E4.3694
G1 X53.840 Y144.986 E4.3791
G1 X54.023 Y145.000 E4.3882
G1 X148.980 Y145.000 E9.1003
G1 X149.167 Y144.985 E9.1096
G1 X149.357 Y144.938 E9.1193
G1 X149.538 Y144.863 E9.1290
G1 X149.705 Y144.760 E9.1388
G1 X149.854 Y144.632 E9.1485
G1 X149.981 Y144.482 E9.1582
G1 X150.083 Y144.315 E9.1680
G1 X150.158 Y144.133 E9.1777
G1 X150.203 Y143.943 E9.1874
G1 X150.217 Y143.760 E9.1965
G1 X150.217 Y58.237 E13.4404
G1 X150.202 Y58.051 E13.4497
G1 X150.156 Y57.860 E13.4594
G1 X150.080 Y57.679 E13.4692
G1 X149.977 Y57.512 E13.4789
G1 X149.849 Y57.363 E13.4887
G1 X149.700 Y57.236 E13.4984
G1 X149.532 Y57.134 E13.5081
G1 X149.351 Y57.060 E13.5179
G1 X149.160 Y57.014 E13.5276
G1 X148.977 Y57.000 E13.5367
G1 X54.020 Y57.000 E18.2488
G1 X53.833 Y57.015 E18.2581
G1 X53.643 Y57.062 E18.2678
G1 X53.462 Y57.137 E18.2775
G1 X53.295 Y57.240 E18.2873
G1 X53.146 Y57.368 E18.2970
G92 E0
G1 E-1.1000 F2100
; gap fill
G1 X52.204 Y57.665 F6000
G1 E0.0000 F2100
G92 E0
G1 X53.165 Y56.704 E0.0675 F1620
G1 X53.287 Y56.674 E0.0737
G1 X53.522 Y56.655 E0.0854
G1 X53.600 Y56.655 E0.0893
G1 X53.516 Y56.676 E0.0935
G1 X53.276 Y56.776 E0.1064
G1 X53.055 Y56.912 E0.1193
G1 X52.858 Y57.082 E0.1323
G1 X52.689 Y57.280 E0.1452
G1 X52.554 Y57.502 E0.1581
G1 X52.455 Y57.742 E0.1710
G1 X52.396 Y57.995 E0.1838
G1 X52.380 Y58.196 E0.1939
G1 X52.155 Y58.421 E0.2096
G1 X52.155 Y59.128 E0.2447
G1 X52.378 Y58.906 E0.2603
G1 X52.378 Y59.613 E0.2954
G1 X52.155 Y59.835 E0.3110
G1 X52.155 Y60.542 E0.3461
G1 X52.378 Y60.320 E0.3617
G1 X52.378 Y61.027 E0.3968
G1 X52.155 Y61.250 E0.4124
G1 X52.155 Y61.957 E0.4475
G1 X52.378 Y61.734 E0.4631
G1 X52.378 Y62.441 E0.4982
G1 X52.155 Y62.664 E0.5138
G1 X52.155 Y63.371 E0.5489
G1 X52.378 Y63.148 E0.5646
G1 X52.378 Y63.855 E0.5996
G1 X52.155 Y64.078 E0.6153
G1 X52.155 Y64.785 E0.6503
G1 X52.378 Y64.563 E0.6660
G1 X52.378 Y65.270 E0.7010
G1 X52.155 Y65.492 E0.7167
G1 X52.155 Y66.199 E0.7517
G1 X52.378 Y65.977 E0.7674
G1 X52.378 Y66.684 E0.8025
G1 X52.155 Y66.906 E0.8181
G1 X52.155 Y67.614 E0.8532
G1 X52.378 Y67.391 E0.8688
G1 X52.378 Y68.098 E0.9039
G1 X52.155 Y68.321 E0.9195
G1 X52.155 Y69.028 E0.9546
G1 X52.378 Y68.805 E0.9702
G1 X52.378 Y69.512 E1.0053
G1 X52.155 Y69.735 E1.0209
G1 X52.155 Y70.442 E1.0560
G1 X52.378 Y70.219 E1.0716
G1 X52.378 Y70.927 E1.1067
G1 X52.155 Y71.149 E1.1223
G1 X52.155 Y71.856 E1.1574
G1 X52.378 Y71.634 E1.1730
G1 X52.378 Y72.341 E1.2081
G1 X52.155 Y72.563 E1.2237
G1 X52.155 Y73.270 E1.2588
G1 X52.378 Y73.048 E1.2744
G1 X52.378 Y73.755 E1.3095
G1 X52.155 Y73.977 E1.3251
G1 X52.155 Y74.685 E1.3602
G1 X52.378 Y74.462 E1.3758
G1 X52.378 Y75.169 E1.4109
G1 X52.155 Y75.392 E1.4265
G1 X52.155 Y76.099 E1.4616
G1 X52.378 Y75.876 E1.4772
G1 X52.378 Y76.583 E1.5123
G1 X52.155 Y76.806 E1.5279
G1 X52.155 Y77.513 E1.5630
G1 X52.378 Y77.290 E1.5786
G1 X52.378 Y77.998 E1.6137
G1 X52.155 Y78.220 E1.6293
G1 X52.155 Y78.927 E1.6644
G1 X52.378 Y78.705 E1.6800
G1 X52.378 Y79.412 E1.7151
G1 X52.155 Y79.634 E1.7307
G1 X52.155 Y80.341 E1.7658
G1 X52.378 Y80.119 E1.7814
G1 X52.378 Y80.826 E1.8165
G1 X52.155 Y81.048 E1.8321
G1 X52.155 Y81.756 E1.8672
G1 X52.378 Y81.533 E1.8828
G1 X52.378 Y82.240 E1.9179
G1 X52.155 Y82.463 E1.9335
G1 X52.155 Y83.170 E1.9686
G1 X52.378 Y82.947 E1.9842
G1 X52.378 Y83.654 E2.0193
G1 X52.155 Y83.877 E2.0349
G1 X52.155 Y84.584 E2.0700
G1 X52.378 Y84.362 E2.0856
G1 X52.378 Y85.069 E2.1207
G1 X52.155 Y85.291 E2.1363
G1 X52.155 Y85.998 E2.1714
G1 X52.378 Y85.776 E2.1870
G1 X52.378 Y86.483 E2.2221
G1 X52.155 Y86.705 E2.2377
G1 X52.155 Y87.412 E2.2728
G1 X52.378 Y87.190 E2.2884
G1 X52.378 Y87.897 E2.3235
G1 X52.155 Y88.120 E2.3391
G1 X52.155 Y88.827 E2.3742
G1 X52.378 Y88.604 E2.3898
G1 X52.378 Y89.311 E2.4249
G1 X52.155 Y89.534 E2.4405
G1 X52.155 Y90.241 E2.4756
G1 X52.378 Y90.018 E2.4912
G1 X52.378 Y90.725 E2.5263
G1 X52.155 Y90.948 E2.5419
G1 X52.155 Y91.655 E2.5770
G1 X52.378 Y91.433 E2.5926
G1 X52.378 Y92.140 E2.6277
G1 X52.155 Y92.362 E2.6433
G1 X52.155 Y93.069 E2.6784
G1 X52.378 Y92.847 E2.6940
G1 X52.378 Y93.554 E2.7291
G1 X52.155 Y93.776 E2.7447
G1 X52.155 Y94.483 E2.7798
G1 X52.378 Y94.261 E2.7954
G1 X52.378 Y94.968 E2.8305
G1 X52.155 Y95.191 E2.8461
G1 X52.155 Y95.898 E2.8812
G1 X52.378 Y95.675 E2.8968
G1 X52.378 Y96.382 E2.9319
G1 X52.155 Y96.605 E2.9475
G1 X52.155 Y97.312 E2.9826
G1 X52.378 Y97.089 E2.9982
G1 X52.378 Y97.797 E3.0333
G1 X52.155 Y98.019 E3.0489
G1 X52.155 Y98.726 E3.0840
G1 X52.378 Y98.504 E3.0996
G1 X52.378 Y99.211 E3.1347
G1 X52.155 Y99.433 E3.1503
G1 X52.155 Y100.140 E3.1854
G1 X52.378 Y99.918 E3.2010
G1 X52.378 Y100.625 E3.2361
G1 X52.155 Y100.847 E3.2517
G1 X52.155 Y101.555 E3.2868
G1 X52.378 Y101.332 E3.3024
G1 X52.378 Y102.039 E3.3375
G1 X52.155 Y102.262 E3.3531
G1 X52.155 Y102.969 E3.3882
G1 X52.378 Y102.746 E3.4038
G1 X52.378 Y103.453 E3.4389
G1 X52.155 Y103.676 E3.4545
G1 X52.155 Y104.383 E3.4896
G1 X52.378 Y104.160 E3.5052
G1 X52.378 Y104.868 E3.5403
G1 X52.155 Y105.090 E3.5559
G1 X52.155 Y105.797 E3.5910
G1 X52.378 Y105.575 E3.6066
G1 X52.378 Y106.282 E3.6417
G1 X52.155 Y106.504 E3.6573
G1 X52.155 Y107.211 E3.6924
G1 X52.378 Y106.989 E3.7080
G1 X52.378 Y107.696 E3.7431
G1 X52.155 Y107.918 E3.7587
G1 X52.155 Y108.626 E3.7938
G1 X52.378 Y108.403 E3.8094
G1 X52.378 Y109.110 E3.8445
G1 X52.155 Y109.333 E3.8601
G1 X52.155 Y110.040 E3.8952
G1 X52.378 Y109.817 E3.9108
G1 X52.378 Y110.524 E3.9459
G1 X52.155 Y110.747 E3.9615
G1 X52.155 Y111.454 E3.9966
G1 X52.378 Y111.232 E4.0122
G1 X52.378 Y111.939 E4.0473
G1 X52.155 Y112.161 E4.0629
G1 X52.155 Y112.868 E4.0980
G1 X52.378 Y112.646 E4.1136
G1 X52.378 Y113.353 E4.1487
G1 X52.155 Y113.575 E4.1643
G1 X52.155 Y114.282 E4.1994
G1 X52.378 Y114.060 E4.2150
G1 X52.378 Y114.767 E4.2501
G1 X52.155 Y114.989 E4.2657
G1 X52.155 Y115.697 E4.3008
G1 X52.378 Y115.474 E4.3164
G1 X52.378 Y116.181 E4.3515
G1 X52.155 Y116.404 E4.3671
G1 X52.155 Y117.111 E4.4022
G1 X52.378 Y116.888 E4.4178
G1 X52.378 Y117.595 E4.4529
G1 X52.155 Y117.818 E4.4685
G1 X52.155 Y118.525 E4.5036
G1 X52.378 Y118.303 E4.5192
G1 X52.378 Y119.010 E4.5543
G1 X52.155 Y119.232 E4.5699
G1 X52.155 Y119.939 E4.6050
G1 X52.378 Y119.717 E4.6206
G1 X52.378 Y120.424 E4.6557
G1 X52.155 Y120.646 E4.6713
G1 X52.155 Y121.353 E4.7064
G1 X52.378 Y121.131 E4.7220
G1 X52.378 Y121.838 E4.7571
G1 X52.155 Y122.061 E4.7727
G1 X52.155 Y122.768 E4.8078
G1 X52.378 Y122.545 E4.8234
G1 X52.378 Y123.252 E4.8585
G1 X52.155 Y123.475 E4.8741
G1 X52.155 Y124.182 E4.9092
G1 X52.378 Y123.959 E4.9248
G1 X52.378 Y124.667 E4.9599
G1 X52.155 Y124.889 E4.9755
G1 X52.155 Y125.596 E5.0106
G1 X52.378 Y125.374 E5.0262
G1 X52.378 Y126.081 E5.0613
G1 X52.155 Y126.303 E5.0769
G1 X52.155 Y127.010 E5.1120
G1 X52.378 Y126.788 E5.1276
G1 X52.378 Y127.495 E5.1627
G1 X52.155 Y127.717 E5.1783
G1 X52.155 Y128.424 E5.2134
G1 X52.378 Y128.202 E5.2290
G1 X52.378 Y128.909 E5.2641
G1 X52.155 Y129.132 E5.2797
G1 X52.155 Y129.839 E5.3147
G1 X52.378 Y129.616 E5.3304
G1 X52.378 Y130.323 E5.3654
G1 X52.155 Y130.546 E5.3811
G1 X52.155 Y131.253 E5.4161
G1 X52.378 Y131.030 E5.4318
G1 X52.378 Y131.738 E5.4668
G1 X52.155 Y131.960 E5.4825
G1 X52.155 Y132.667 E5.5175
G1 X52.378 Y132.445 E5.5331
G1 X52.378 Y133.152 E5.5682
G1 X52.155 Y133.374 E5.5838
G1 X52.155 Y134.081 E5.6189
G1 X52.378 Y133.859 E5.6345
G1 X52.378 Y134.566 E5.6696
G1 X52.155 Y134.788 E5.6852
G1 X52.155 Y135.496 E5.7203
G1 X52.378 Y135.273 E5.7359
G1 X52.378 Y135.980 E5.7710
G1 X52.155 Y136.203 E5.7866
G1 X52.155 Y136.910 E5.8217
G1 X52.378 Y136.687 E5.8373
G1 X52.378 Y137.394 E5.8724
G1 X52.155 Y137.617 E5.8880
G1 X52.155 Y138.324 E5.9231
G1 X52.378 Y138.102 E5.9387
G1 X52.378 Y138.809 E5.9738
G1 X52.155 Y139.031 E5.9894
G1 X52.155 Y139.738 E6.0245
G1 X52.378 Y139.516 E6.0401
G1 X52.378 Y140.223 E6.0752
G1 X52.155 Y140.445 E6.0908
G1 X52.155 Y141.152 E6.1259
G1 X52.378 Y140.930 E6.1415
G1 X52.378 Y141.637 E6.1766
G1 X52.155 Y141.859 E6.1922
G1 X52.155 Y142.567 E6.2273
G1 X52.378 Y142.344 E6.2429
G1 X52.378 Y143.051 E6.2780
G1 X52.155 Y143.274 E6.2936
G1 X52.155 Y143.978 E6.3285
G1 X52.156 Y143.981 E6.3287
G1 X52.378 Y143.758 E6.3443
G1 X52.378 Y143.779 E6.3453
G1 X52.397 Y144.014 E6.3570
G1 X52.458 Y144.266 E6.3699
G1 X52.493 Y144.350 E6.3744
G1 X52.283 Y144.560 E6.3891
G1 X52.305 Y144.612 E6.3919
G1 X52.415 Y144.791 E6.4024
G1 X52.553 Y144.951 E6.4128
G1 X52.578 Y144.973 E6.4145
G1 X52.754 Y144.796 E6.4268
G1 X52.864 Y144.925 E6.4352
G1 X53.062 Y145.093 E6.4481
G1 X53.126 Y145.132 E6.4518
G1 X53.011 Y145.246 E6.4598
G92 E0
G1 E-1.1000 F2100
G1 X149.835 Y145.296 F6000
G1 E0.0000 F2100
G92 E0
G1 X150.796 Y144.335 E0.0675 F1620
G1 X150.827 Y144.207 E0.0740
G1 X150.845 Y143.974 E0.0856
G1 X150.845 Y143.579 E0.1052
G1 X150.620 Y143.804 E0.1210
G1 X150.622 Y143.776 E0.1223
G1 X150.622 Y143.094 E0.1562
G1 X150.845 Y142.872 E0.1718
G1 X150.845 Y142.165 E0.2069
G1 X150.622 Y142.387 E0.2225
G1 X150.622 Y141.680 E0.2576
G1 X150.845 Y141.458 E0.2732
G1 X150.845 Y140.751 E0.3083
